icons/desktop/20/experiments-20.svg

<svg width="20" height="20" viewBox="0 0 20 20" fill="none" xmlns="http://www.w3.org/2000/svg">
<path d="M5.25034 13.4996C5.29353 13.4996 5.33621 13.5022 5.37827 13.5065C6.0083 13.5706 6.50016 14.1027 6.50034 14.7496C6.50034 15.4399 5.94059 15.9995 5.25034 15.9996C4.55999 15.9996 4.00034 15.44 4.00034 14.7496C4.00054 14.0594 4.56011 13.4996 5.25034 13.4996Z" fill="black"/>
<path fill-rule="evenodd" clip-rule="evenodd" d="M10.0003 6.99962C11.657 6.99975 13.0001 8.34301 13.0003 9.99962C13.0003 11.6564 11.6571 12.9995 10.0003 12.9996C8.34349 12.9996 7.00034 11.6565 7.00034 9.99962C7.00054 8.34293 8.34361 6.99962 10.0003 6.99962ZM10.0003 8.74962C9.31011 8.74962 8.75054 9.30943 8.75034 9.99962C8.75034 10.69 9.30999 11.2496 10.0003 11.2496C10.6906 11.2495 11.2503 10.6899 11.2503 9.99962C11.2501 9.30951 10.6905 8.74975 10.0003 8.74962Z" fill="black"/>
<path d="M14.7503 3.99962C15.4405 3.99975 16.0001 4.55951 16.0003 5.24962C16.0003 5.93989 15.4406 6.49949 14.7503 6.49962C14.06 6.49962 13.5003 5.93997 13.5003 5.24962C13.5005 4.55943 14.0601 3.99962 14.7503 3.99962Z" fill="black"/>
<path fill-rule="evenodd" clip-rule="evenodd" d="M12.3832 0.964462C14.9031 0.150478 17.0013 0.411784 18.2953 1.70372C19.5872 2.99668 19.8504 5.09594 19.0355 7.61583C18.7816 8.40067 18.4245 9.20078 17.9886 9.99962H17.9906C18.4266 10.7986 18.7835 11.5994 19.0375 12.3844C19.8522 14.904 19.5879 17.0036 18.2972 18.2955C17.4982 19.0955 16.3888 19.5006 15.0628 19.5006C14.2459 19.5006 13.346 19.3457 12.3851 19.0358C11.6002 18.7818 10.8003 18.4248 10.0013 17.9889C9.20246 18.4248 8.4014 18.7818 7.61753 19.0358C6.65653 19.3468 5.75582 19.5006 4.93882 19.5006C3.61297 19.5005 2.50536 19.0945 1.70542 18.2955C0.413566 17.0026 0.150346 14.9032 0.965188 12.3844C1.21919 11.5994 1.57606 10.7986 2.01206 9.99962C1.57614 9.20072 1.21915 8.39973 0.965188 7.61583C0.150239 5.09689 0.413445 2.99667 1.70542 1.7047C2.99745 0.41194 5.09576 0.150521 7.61558 0.964462C8.40041 1.21845 9.20055 1.57544 9.99937 2.01134C10.7983 1.57537 11.5992 1.21846 12.3832 0.964462ZM16.9027 11.7399C16.2228 12.7067 15.4342 13.6517 14.5433 14.5426C13.6524 15.4335 12.7065 16.223 11.7406 16.9029C12.1375 17.0829 12.5333 17.2447 12.9232 17.3707C14.757 17.9647 16.2649 17.852 17.058 17.0582C17.8499 16.2663 17.9653 14.7582 17.3714 12.9234C17.2454 12.5344 17.0827 12.1379 16.9027 11.7399ZM15.0482 2.25157C14.4192 2.25157 13.7011 2.37658 12.9242 2.62755C12.5352 2.75353 12.1395 2.91634 11.7416 3.0963C12.0623 3.32214 12.376 3.57794 12.6918 3.82774C12.4118 4.23165 12.2455 4.72078 12.2455 5.24864C12.2455 5.42264 12.2632 5.59343 12.2972 5.75743C11.5502 5.10643 10.7803 4.52475 10.0023 4.03575C8.86838 4.7487 7.74654 5.64408 6.69761 6.69298C5.64872 7.74187 4.75337 8.86477 4.03941 9.99864C4.53041 10.7796 5.11292 11.5543 5.76792 12.3043C5.60102 12.2693 5.42919 12.2487 5.2523 12.2486C4.72635 12.2486 4.23828 12.415 3.83531 12.694C3.58331 12.377 3.32598 12.0619 3.09898 11.7389C2.91898 12.1359 2.7572 12.5325 2.6312 12.9225C2.03738 14.7572 2.15085 16.2653 2.9437 17.0572C3.7357 17.8502 5.24245 17.9637 7.07945 17.3697C7.46832 17.2438 7.8642 17.0819 8.26206 16.902C7.94009 16.674 7.62396 16.4166 7.30699 16.1656C7.58592 15.7627 7.7523 15.2756 7.7523 14.7486C7.75227 14.5718 7.73257 14.3999 7.69761 14.233C8.44749 14.8869 9.22143 15.4706 10.0023 15.9615C11.1361 15.2486 12.2582 14.3541 13.307 13.3043C14.355 12.2563 15.2502 11.1326 15.9642 9.99864C15.4732 9.21872 14.8906 8.44581 14.2367 7.69688C14.3997 7.73088 14.5705 7.74864 14.7435 7.74864C15.2724 7.74857 15.7615 7.5823 16.1654 7.30138C16.4173 7.61926 16.6748 7.93648 16.9027 8.26036C17.0827 7.86336 17.2454 7.46677 17.3714 7.07677L17.3724 7.07579C17.9663 5.24091 17.8519 3.73299 17.0589 2.94102C16.6019 2.48309 15.9071 2.25158 15.0482 2.25157ZM4.95347 2.25255C4.09447 2.25255 3.39875 2.484 2.94175 2.942L2.94077 2.94298C2.14897 3.735 2.03439 5.24297 2.62827 7.07774C2.75427 7.46674 2.91605 7.86334 3.09605 8.26134C3.77605 7.29434 4.56638 6.34765 5.45738 5.45665C6.34824 4.56581 7.29427 3.77718 8.26011 3.09727C7.86317 2.9173 7.46744 2.75452 7.07749 2.62852C6.30162 2.37757 5.58339 2.25259 4.95347 2.25255Z" fill="black"/>
</svg>

<!-- This Source Code Form is subject to the terms of the Mozilla Public
   - License, v. 2.0. If a copy of the MPL was not distributed with this
   - file, You can obtain one at http://mozilla.org/MPL/2.0/. -->
<svg xmlns="http://www.w3.org/2000/svg" width="20" height="20" fill="context-fill" fill-opacity="context-fill-opacity" viewBox="0 0 20 20">
    <path d="M5.25 13.5q.066 0 .128.007a1.25 1.25 0 1 1-.128-.007" />
    <path fill-rule="evenodd" d="M10 7a3 3 0 1 1 0 6 3 3 0 0 1 0-6m0 1.75a1.25 1.25 0 1 0 .001 2.5 1.25 1.25 0 0 0 0-2.5" clip-rule="evenodd" />
    <path d="M14.75 4a1.25 1.25 0 1 1 0 2.5 1.25 1.25 0 0 1 0-2.5" />
    <path fill-rule="evenodd" d="M12.383.964c2.52-.814 4.618-.552 5.912.74 1.292 1.293 1.555 3.392.74 5.912A14 14 0 0 1 17.99 10h.002c.436.799.793 1.6 1.047 2.384.814 2.52.55 4.62-.74 5.912-.8.8-1.91 1.205-3.235 1.205-.817 0-1.717-.155-2.678-.465a14 14 0 0 1-2.384-1.047c-.799.436-1.6.793-2.383 1.047-.961.31-1.862.465-2.68.465-1.325 0-2.433-.407-3.233-1.206-1.291-1.292-1.555-3.392-.74-5.91.254-.786.611-1.586 1.047-2.385-.436-.8-.793-1.6-1.047-2.384-.815-2.52-.552-4.62.74-5.911C2.997.412 5.095.15 7.615.965c.785.253 1.586.61 2.384 1.046A14 14 0 0 1 12.383.964m4.52 10.776a21.375 21.375 0 0 1-5.162 5.163c.396.18.792.342 1.182.468 1.834.594 3.342.481 4.135-.313.792-.792.907-2.3.313-4.135a12 12 0 0 0-.468-1.183m-1.855-9.488c-.629 0-1.347.125-2.124.376-.389.126-.784.288-1.182.468.32.226.634.482.95.732a2.49 2.49 0 0 0-.395 1.93 18.5 18.5 0 0 0-2.295-1.722 19 19 0 0 0-3.304 2.657 19 19 0 0 0-2.659 3.306 18.5 18.5 0 0 0 1.729 2.305 2.483 2.483 0 0 0-1.933.39c-.252-.317-.509-.632-.736-.955-.18.397-.342.793-.468 1.183-.594 1.835-.48 3.343.313 4.135.792.793 2.298.907 4.135.313.39-.126.785-.288 1.183-.468-.322-.228-.638-.485-.955-.736a2.48 2.48 0 0 0 .39-1.933c.75.654 1.524 1.238 2.305 1.728a19 19 0 0 0 3.305-2.657A19 19 0 0 0 15.964 10a18.6 18.6 0 0 0-1.727-2.302 2.5 2.5 0 0 0 1.928-.396c.252.318.51.635.738.96.18-.398.342-.794.468-1.184l.001-.001c.594-1.835.48-3.343-.313-4.135-.457-.458-1.152-.69-2.01-.69m-10.095 0c-.859 0-1.554.232-2.011.69l-.001.001c-.792.792-.907 2.3-.313 4.135.126.389.288.785.468 1.183A21.374 21.374 0 0 1 8.26 3.097a11 11 0 0 0-1.183-.468c-.775-.251-1.494-.376-2.124-.376" clip-rule="evenodd" />
</svg>
